Obsidian-SemiLight/actions/22s/username-copy.svg

<svg viewBox="0 0 22 22" xmlns="http://www.w3.org/2000/svg"><path d="m8 3a3 3 0 0 0 -3 3 3 3 0 0 0 3 3 3 3 0 0 0 3-3 3 3 0 0 0 -3-3zm0 1a2 2 0 0 1 2 2 2 2 0 0 1 -2 2 2 2 0 0 1 -2-2 2 2 0 0 1 2-2zm4 2v1h7v7h-3-1v1 3h-4v-2h-1v1 1 1h6l4-4v-1-7-1zm-4 4a5 4.5 0 0 0 -5 4.5 5 4.5 0 0 0 .0332031.5h.9667969.0449219 7.9101561.044922.962891a5 4.5 0 0 0 .037109-.5 5 4.5 0 0 0 -5-4.5zm0 1a4 3.5 0 0 1 3.955078 3h-7.9101561a4 3.5 0 0 1 3.9550781-3z" fill="#4d4d4d"/></svg>

<svg xmlns="http://www.w3.org/2000/svg" viewBox="0 0 22 22">
  <defs id="defs3051">
    <style type="text/css" id="current-color-scheme">
      .ColorScheme-Text {
        color:#4d4d4d;
      }
      </style>
  </defs>
 <path 
    style="fill:currentColor;fill-opacity:1;stroke:none" 
    d="M 8 3 A 3 3 0 0 0 5 6 A 3 3 0 0 0 8 9 A 3 3 0 0 0 11 6 A 3 3 0 0 0 8 3 z M 8 4 A 2 2 0 0 1 10 6 A 2 2 0 0 1 8 8 A 2 2 0 0 1 6 6 A 2 2 0 0 1 8 4 z M 12 6 L 12 7 L 19 7 L 19 14 L 16 14 L 15 14 L 15 15 L 15 18 L 11 18 L 11 16 L 10 16 L 10 17 L 10 18 L 10 19 L 16 19 L 20 15 L 20 14 L 20 7 L 20 6 L 12 6 z M 8 10 A 5 4.5 0 0 0 3 14.5 A 5 4.5 0 0 0 3.0332031 15 L 4 15 L 4.0449219 15 L 11.955078 15 L 12 15 L 12.962891 15 A 5 4.5 0 0 0 13 14.5 A 5 4.5 0 0 0 8 10 z M 8 11 A 4 3.5 0 0 1 11.955078 14 L 4.0449219 14 A 4 3.5 0 0 1 8 11 z "
	class="ColorScheme-Text"
    />  
</svg>
